src/sprite-icons/auth-btn.svg

<svg width="23" height="23" viewBox="0 0 23 23" xmlns="http://www.w3.org/2000/svg">
  <path d="M1.80675 15.1776C1.22194 15.3995 0.922763 16.0567 1.20106 16.6169C2.19378 18.615 3.75079 20.2892 5.69037 21.4246C7.95702 22.7515 10.6096 23.2625 13.2069 22.8726C15.8043 22.4828 18.1899 21.2156 19.9672 19.2818C21.7445 17.348 22.8062 14.8641 22.976 12.2432C23.1457 9.62222 22.4132 7.02213 20.9002 4.87526C19.3871 2.72839 17.1849 1.16411 14.6595 0.442526C12.1341 -0.279056 9.4378 -0.114455 7.01895 0.908958C4.94913 1.78469 3.18919 3.24411 1.94705 5.09754C1.59882 5.61713 1.81074 6.30741 2.36204 6.60286C2.91335 6.89831 3.59437 6.68584 3.95504 6.17481C4.94393 4.77369 6.30844 3.66905 7.90155 2.99501C9.84398 2.17317 12.0092 2.04099 14.0372 2.62045C16.0651 3.1999 17.8337 4.45608 19.0487 6.18009C20.2637 7.90411 20.8519 9.99207 20.7156 12.0968C20.5793 14.2015 19.7267 16.1962 18.2995 17.7491C16.8723 19.302 14.9565 20.3196 12.8707 20.6326C10.7849 20.9457 8.65486 20.5353 6.83465 19.4698C5.34178 18.5959 4.13115 17.3245 3.33123 15.8076C3.03948 15.2543 2.39155 14.9558 1.80675 15.1776Z"/>
  <path d="M1.4375 10.6C0.940444 10.6 0.5375 11.0029 0.5375 11.5C0.5375 11.9971 0.940444 12.4 1.4375 12.4L1.4375 10.6ZM16.4489 12.1364C16.8004 11.7849 16.8004 11.2151 16.4489 10.8636L10.7213 5.13604C10.3699 4.78457 9.80001 4.78457 9.44854 5.13604C9.09707 5.48751 9.09707 6.05736 9.44854 6.40883L14.5397 11.5L9.44854 16.5912C9.09707 16.9426 9.09707 17.5125 9.44854 17.864C9.80001 18.2154 10.3699 18.2154 10.7213 17.864L16.4489 12.1364ZM1.4375 12.4L15.8125 12.4V10.6L1.4375 10.6L1.4375 12.4Z"/>
</svg>

<svg width="23" height="23" xmlns="http://www.w3.org/2000/svg"><path d="M1.807 15.178c-.585.221-.884.879-.606 1.439a11.5 11.5 0 1 0 .746-11.52c-.348.52-.136 1.21.415 1.506.551.295 1.232.083 1.593-.428a9.235 9.235 0 1 1-.624 9.633c-.292-.554-.94-.852-1.524-.63Z"/><path d="M1.438 10.6a.9.9 0 1 0 0 1.8v-1.8Zm15.01 1.536a.9.9 0 0 0 0-1.272l-5.727-5.728A.9.9 0 1 0 9.45 6.409l5.09 5.091-5.09 5.091a.9.9 0 0 0 1.272 1.273l5.728-5.728Zm-15.01.264h14.374v-1.8H1.438v1.8Z"/></svg>
